X: 93
T: The Volatile
%R: reel
B: Chas & Sam Thompson "Twenty Four Country Dances for the Year 1776", London 1776, p.47 #1
F: http://www.vwml.org/browse/browse-collections-dance-tune-books/browse-thompsons1776#
Z: 2014 John Chambers <jc:trillian.mit.edu> (added dance description)
M: 2/4
L: 1/16
K: A
% - - - - - - - - - - - - - - - - - - - - - - - - - - - - -
|:\
{f}e2dc f2f2 | {f}e2dc d4 | {d}c2BA G2A2 | BABc B4 |\
{f}e2dc f2f2 | {f}e2dc d4 | {d}c2BA GABG | A4 A,4 :|
|:\
c2BA ecBA | {c}B2AG e3B | {B}A2cB AGFE | ^D4 B,4 |\
{g}f2ed a2a2 | {a}g2fe c'2b2 | {a}g2fe ^defd | e4 E4 |
e2dc f2f2 | {f}e2dc d4 | {d}c2BA G2A2 | BABc B4 |\
e2dc f2f2 | {f}e2dc d4 | {d}c2BA GABG | A4 A,4 :|
% - - - - - - - - - - Dance description - - - - - - - - - -
%%begintext align
%% Foot it & half right & left .| the same back again .|:
%% cross over 2 Cu. lead up to the top & cast off :|. 4
%% hands round at bottom right and left at top :|:
%%endtext

%%sep 1 1 500
%%sep 1 1 500
